!!!COM: Bach, Johann Sebastian
!!!OPR: Joh. Seb. Bachs vierstimmige Choralgesänge
!!!XEN: Four-part Chorales
!!!OTL: 78. Herr, ich habe missgehandelt
!!!SCT: BWV 331
!!!SCA: Thematisch-systematisches Verzeichnis der musikalischen Werke Johann Sebastian Bach: Bach-Werke-Verzeichnis (Schmieder)
!!!YOR: Bach Gesellschaft Edition xxxix
!!!ENC: Steven Rasmussen
!!!CDT: 1685/3//-1750/7/28/
!!!OCY: Deutschland
!!!YEC: Copyright (c) 1994, 2000 Center for Computer Assisted Research in the Humanities
!!!YEM: Rights to all derivative editions reserved
!!!YEN: United States of America
**kern	**kern	**kern	**kern	**silbe
*I:[BASSO]	*I:[TENORE]	*I:[ALTO]	*I:[SOPRANO]	*I:[SOPRANO]
*>[A,A,B]	*>[A,A,B]	*>[A,A,B]	*>[A,A,B]	*
*>A	*>A	*>A	*>A	*
*clefF4	*clefGv2	*clefG2	*clefG2	*
*k[]	*k[]	*k[]	*k[]	*
*a:	*a:	*a:	*a:	*
*M4/4	*M4/4	*M4/4	*M4/4	*
=1-	=1-	=1-	=1-	=1-
4AA	4c	4e	4a	Herr,ich
8AL	4c	4e	4e	ichbin
8GJ	.	.	.	.
4F#	(8c	4e	4a	ha-nicht
.	4A)	.	.	.
4Fn	.	4d	4b	-beden
.	16BLL	.	.	.
.	16AJJ	.	.	.
=2	=2	=2	=2	=2
4E	4G#	4e	4cc	miss-Weg
8FL	4A	4a	4dd	-ge-ge-
8DJ	.	.	.	.
2E	4.e	4a	2b	-han--wan-
.	.	4g#	.	.
.	8d	.	.	.
=3	=3	=3	=3	=3
2AA;	2c;	2e;	2a;	-delt,-delt,
4A	4e	4a	4cc	jaden
4B	4d	4g#	4b	michdu
=4	=4	=4	=4	=4
4c	4e	4a	4a	drÃ¼cktmir
4G#	8eL	4e	4b	derge-
.	8dJ	.	.	.
8AL	8cL	4e	4cc	SÃ¼n--zei-
8GnJ	8BJ	.	.	.
4F	4A	4a	4dd	-den-get
=5	=5	=5	=5	=5
1E;	1B;	1g#;	1ee;	Last;hast;
=6:|!	=6:|!	=6:|!	=6:|!	=6:|!
*>B	*>B	*>B	*>B	*
4A	4c	4a	4ee	und
8GL	4d	4a	4ff	itzt
8FJ	.	.	.	.
4E	8dL	4g	4gg	wollt'
.	8cJ	.	.	.
8FL	4c	4a	4cc	ich
8EJ	.	.	.	.
=7	=7	=7	=7	=7
4D	8cL	8aL	4ff	gern
.	8BJ	8a-J	.	.
8EL	4c	4g	4ee	aus
8FJ	.	.	.	.
2G	4c	4.g	2dd	Schre-
.	4B	.	.	.
.	.	8f	.	.
=8	=8	=8	=8	=8
2C;	2G;	2e;	2cc;	-cken
8GL	4B	4g	4dd	mich
8FJ	.	.	.	.
8EL	4B	4g	4dd	vor
8DJ	.	.	.	.
=9	=9	=9	=9	=9
8CL	8cL	4g	4ee	dei-
8EJ	8GJ	.	.	.
8DL	4d	8f#L	4a	-nem
8CJ	.	8eJ	.	.
4BB	4d	8f#L	4dd	Zorn
.	.	8g#J	.	.
4AA	4e	4a	4cc	ver-
=10	=10	=10	=10	=10
2E	4.e	4a	2b	-ste-
.	.	4g#	.	.
.	8d	.	.	.
2AA;	2c#;	2e;	2a;	-cken.
==|!	==|!	==|!	==|!	==|!
*-	*-	*-	*-	*-
!!!RWG: Key is interpreted using the Humdrum key tool.
!!!URL-pdf: https://s9.imslp.org/files/imglnks/usimg/6/6b/IMSLP24489-PMLP09471-CCARH_Bach_Chorales.pdf#page=56 Musedata edition
!!!URL-pdf: https://s9.imslp.org/files/imglnks/usimg/7/7a/IMSLP04155-Bach_-_BGA_253-438.pdf#page=43 	Bach-Gesellschaft Ausgabe, Band 39 (pp.175-276) Leipzig: Breitkopf und Härtel, 1892. Plate B.W. XXXIX.
!!!END: 1994/06/08
!!!EMD: Converted from MuseData to Humdrum Dec 19, 2000, by Andreas Kornstaedt using muse2kern.
!!!EED: Craig Stuart Sapp
!!!EEV: 2024/03/31
!!!filter-keyboard: satb2gs
